SVG/BTS.svg

<svg xmlns="http://www.w3.org/2000/svg" width="226.777" height="226.777" viewBox="0 0 226.777 226.777"><path d="M113.435.193C50.866.193.094 50.867.094 113.435c0 62.567 50.772 113.342 113.342 113.342 62.568 0 113.342-50.774 113.342-113.342C226.777 50.867 176.004.193 113.435.193zm47.328 134.785h-27.854c-.346-2.179-1.147-4.243-2.406-5.963l19.716-19.716c5.843 6.993 9.856 15.818 10.544 25.679zm-40.579-40.464c9.858.457 18.686 4.47 25.676 10.545l-19.716 19.717c-1.718-1.145-3.782-2.065-5.96-2.408V94.514zM73.99 40.753l40.349 36.107v45.622c-1.834.345-3.784 1.149-5.388 2.179-3.898-3.897-27.396-27.512-34.847-35.078-.114-1.376-.114-48.83-.114-48.83zm0 57.886l30.261 30.261c-1.145 1.835-2.063 3.899-2.408 6.078H73.99V98.639zm0 42.297h27.853c.344 2.065 1.147 4.127 2.408 5.733l-19.717 19.945c-5.959-6.877-9.856-15.818-10.544-25.678zm40.461 40.35c-9.856-.459-18.682-4.469-25.674-10.545l19.717-19.715c1.717 1.146 3.781 2.062 5.957 2.406v27.854zm5.733 0v-27.854a14.748 14.748 0 0 0 6.076-2.406l19.6 19.6c-6.877 6.075-15.817 9.973-25.676 10.66zm30.377-15.131L130.73 146.44a15.823 15.823 0 0 0 2.064-5.617h28.082c-.686 9.63-4.469 18.341-10.315 25.332z"/></svg>

<svg version="1.1" id="Layer_1" xmlns="http://www.w3.org/2000/svg" xmlns:xlink="http://www.w3.org/1999/xlink" x="0px" y="0px"
	 width="226.777px" height="226.777px" viewBox="0 0 226.777 226.777" enable-background="new 0 0 226.777 226.777"
	 xml:space="preserve">
<path id="BTS" fill="#000000" d="M113.435,0.193C50.866,0.193,0.094,50.867,0.094,113.435c0,62.567,50.772,113.342,113.342,113.342
	c62.568,0,113.342-50.774,113.342-113.342C226.777,50.867,176.004,0.193,113.435,0.193z M160.763,134.978h-27.854
	c-0.346-2.179-1.147-4.243-2.406-5.963l19.716-19.716C156.062,116.292,160.075,125.117,160.763,134.978z M120.184,94.514
	c9.858,0.457,18.686,4.47,25.676,10.545l-19.716,19.717c-1.718-1.145-3.782-2.065-5.96-2.408V94.514z M73.99,40.753l40.349,36.107
	c0,0,0,37.714,0,45.622c-1.834,0.345-3.784,1.149-5.388,2.179c-3.898-3.897-27.396-27.512-34.847-35.078
	C73.99,88.207,73.99,40.753,73.99,40.753z M73.99,98.639l30.261,30.261c-1.145,1.835-2.063,3.899-2.408,6.078H73.99
	C73.99,124.776,73.99,114.114,73.99,98.639z M73.99,140.936h27.853c0.344,2.065,1.147,4.127,2.408,5.733l-19.717,19.945
	C78.575,159.737,74.678,150.796,73.99,140.936z M114.451,181.286c-9.856-0.459-18.682-4.469-25.674-10.545l19.717-19.715
	c1.717,1.146,3.781,2.062,5.957,2.406V181.286z M120.184,181.286v-27.854c2.178-0.345,4.242-1.146,6.076-2.406l19.6,19.6
	C138.983,176.701,130.043,180.599,120.184,181.286z M150.561,166.155L130.73,146.44c1.031-1.723,1.719-3.554,2.064-5.617h28.082
	C160.19,150.453,156.407,159.164,150.561,166.155z"/>
</svg>
